X:1
T:491 - Como HÃ¡ de Ser
T:Letra: Sarah Poulton Kalley (1825-1907)
T:MÃºsica: Eduard Niemeyer
M:4/4
L:1/8
Q:1/4=90
K:D
V:1
D FA | "D"d3d "A"cB "(A7)"AG | "D"G2 F2 zA FA | "G"B3A Bc "A7"de | "D"d4 zD FA | d3d "A"cB "(A7)"AG | "D"G2 F2 zA FA | "G"B3A Bc "A7"de | "D"d4 z2 A2 | "A"A3/E/ EF "A7"GB AG | "D"G2 F2 zD FD | "D"A3F BA FD | "A"A4 zD "A7"FA | "D"d3d "A"cB "(A7)"AG | "D"G2 F2 zA FA | "G"Bc "Em"de "D/A"f2 "A7"e2 | "D"d4 z |]
w: 1.~Co-mohÃ¡ de ser, con-clu-saa lon-ga li-da, Fin-daa pe-le-ja da pai-xÃ£o mor-tal, Quan-do,a-vis-tan-doa-lÃ©m daes-cu-ra vi-da A por-ta do pra-zer ce-les-ti-al, Dos pÃ©s var-ri-daa Ãºl-ti-ma po-ei-ra, Do ros-toen-xu-to seu fi-nal su-or, Dei-xar-mos es-ta ce-na pas-sa-gei-ra, En-tran-doao san-to lar dee-ter-noa-mor?
w: 2.~Co-mohÃ¡ de ser, nos cÃ©us por Deus ba-nha-dos Dos raios da di-vi-nae ex-cel-sa luz, Oh, quea-le-gria!  I-sen-tos de pe-ca-dos, Es-tar-mos nÃ³s di-an-te de Je-sus! E pe-la vez pri-mei-raem har-mo-ni-a Comos san-tos ci-da-dÃ£os dos al-tos cÃ©us, U-nin-do-nos, sem me-do, Ã  com-pa-nhia Que cer-cao tro-no do su-pre-mo Deus?
w: 3.~Co-mohÃ¡ de ser, com sen-ti-men-toou-vin-do O co-ro dos re-mi-dos do Se-nhor, As Ã¡u-reas har-pas, sem-pre re-ti-nin-do Lou-vo-res ao Cor-dei-ro,ao Sal-va-dor; E quan-do, den-tro deÃ¡-trios es-pa-Ã§o-sos, En-toar-mos gra-tos sal-mos, sem ces-sar, E, co-moin-cen-so,os hi-nos fer-vo-ro-sos Su-bi-rem jun-to ao ce-les-teal-tar?
w: 4.~Co-mohÃ¡ de ser, quan-doo Ju-iz cha-mar-nos: "Ben-di-tos, vin-de, pa-raos cÃ©us en-trai!" Eo Sal-va-dor dig-nar-se re-ve-lar-nos A glÃ³-riaem quee-leha-bi-ta com o Pai? A-li, nÃ£o tem, ja-mais, a mor-teen-tra-da, Nem dor nem pran-toes-tor-vam o pra-zer. A vis-ta nÃ£o seo-fus-ca,eem vol-ta na-da Po-dea di-to-sa fes-taen-tris-te-cer?
w: 5.~Co-mohÃ¡ de ser, quan-doa pas-mo-sahis-tÃ³-ria Da tris-teein-dig-na vi-da que fin-dou, Com lu-ci-dez sees-pe-lhe na me-mÃ³-ria To-do pe-ca-doou mal queen-tÃ£o pas-sou, O nos-soa-pre-Ã§o de Je-sus au-men-te, E da cle-mÃªn-cia des-te Ben-fei-tor; E de con-tÃ­-nuoa gra-ti-dÃ£o sea-len-te Por seu in-sig-nee mi-la-gro-soa-mor?
w: 6.~Co-mohÃ¡ de ser?  Oh, nun-ca foi pen-sa-do, Por men-teou co-ra-Ã§Ã£o hu-ma-noa-qui, O bem-es-tar por Deus de-ter-mi-na-do Pa-raos queen-tra-rem com tri-un-foa-li! A-van-te,ir-mÃ£os!  A-van-te no ca-mi-nho Que nos con-duz ao go-zo tÃ£o re-al! Sea-qui nÃ³s te-mos um qui-nhÃ£o mes-qui-nho. Mar-cha-mos pa-raa glÃ³-ria di-vi-nal.
W: 
W:
W: 1. Como hÃ¡ de ser, conclusa a longa lida,
W: Finda a peleja da paixÃ£o mortal,
W: Quando, avistando alÃ©m da escura vida
W: A porta do prazer celestial,
W: Dos pÃ©s varrida a Ãºltima poeira,
W: Do rosto enxuto seu final suor,
W: Deixarmos esta cena passageira,
W: Entrando ao santo lar de eterno amor?
W: 
W: 2. Como hÃ¡ de ser, nos cÃ©us por Deus banhados
W: Dos raios da divina e excelsa luz,
W: Oh, que alegria!  Isentos de pecados,
W: Estarmos nÃ³s diante de Jesus!
W: E pela vez primeira em harmonia
W: Com os santos cidadÃ£os dos altos cÃ©us,
W: Unindo-nos, sem medo, Ã  companhia
W: Que cerca o trono do supremo Deus?
W: 
W: 3. Como hÃ¡ de ser, com sentimento ouvindo
W: O coro dos remidos do Senhor,
W: As Ã¡ureas harpas, sempre retinindo
W: Louvores ao Cordeiro, ao Salvador;
W: E quando, dentro de Ã¡trios espaÃ§osos,
W: Entoarmos gratos salmos, sem cessar,
W: E, como incenso, os hinos fervorosos
W: Subirem junto ao celeste altar?
W: 
W:
W:
W: 4. Como hÃ¡ de ser, quando o Juiz chamar-nos:
W: "Benditos, vinde, para os cÃ©us entrai!"
W: E o Salvador dignar-se revelar-nos
W: A glÃ³ria em que ele habita com o Pai?
W: Ali, nÃ£o tem, jamais, a morte entrada,
W: Nem dor nem pranto estorvam o prazer.
W: A vista nÃ£o se ofusca, e em volta nada
W: Pode a ditosa festa entristecer?
W: 
W: 5. Como hÃ¡ de ser, quando a pasmosa histÃ³ria
W: Da triste e indigna vida que findou,
W: Com lucidez se espelhe na memÃ³ria
W: Todo pecado ou mal que entÃ£o passou,
W: O nosso apreÃ§o de Jesus aumente,
W: E da clemÃªncia deste Benfeitor;
W: E de contÃ­nuo a gratidÃ£o se alente
W: Por seu insigne e milagroso amor?
W: 
W: 6. Como hÃ¡ de ser?  Oh, nunca foi pensado,
W: Por mente ou coraÃ§Ã£o humano aqui,
W: O bem-estar por Deus determinado
W: Para os que entrarem com triunfo ali!
W: Avante, irmÃ£os!  Avante no caminho
W: Que nos conduz ao gozo tÃ£o real!
W: Se aqui nÃ³s temos um quinhÃ£o mesquinho.
W: Marchamos para a glÃ³ria divinal.
W: 
W:        

